X:1
T:Abiding Grace, CM
T:Abiding Grace, CM
T:John Spencer Camp, 1905
T:Public Domain Courtesy of the Cyber Hymnal™
C:John Spencer Camp, 1905
Z:Public Domain
Z:Courtesy of the Cyber Hymnal™
%%score ( 1 2 ) ( 3 4 )
L:1/8
Q:1/4=106
M:4/4
K:F
V:1 treble 
V:2 treble 
V:3 bass 
V:4 bass 
V:1
 [CF]2 | [FB]2 [FA]2 [CG]2 [CF]2 | [CF]2 (EF) [CG]2 [CF]2 | [FA]2 [Gc]2 [Fd]2 =B2 | [Ec]6 [EG]2 | %5
 [Fc]2 B2 [FA]2 [Gc]2 | [^Fd]2 c2 B2 [DG]2 | [CF]2 (EF) [EA]2 [EG]2 | [CF]6 |] %9
V:2
 x2 | x8 | x2 C2 x4 | x6 (GF) | x8 | x2 (FE) x4 | x2 (GA) B2 x2 | x2 C2 x4 | x6 |] %9
V:3
 [F,A,]2 | [F,D]2 [F,C]2 [E,B,]2 [F,A,]2 | [G,B,]2 ([G,B,][F,A,]) [E,B,]2 [F,A,]2 | %3
 [F,C]2 [E,G,]2 [D,A,]2 [G,,G,]2 | [C,G,]6 [B,C]2 | [A,C]2 [G,C]2 [F,C]2 [_E,A,]2 | %6
 [D,A,]2 D2 [G,D]2 [B,,B,]2 | [C,A,]2 (G,A,) [C,C]2 [C,B,]2 | [F,A,]6 |] %9
V:4
 x2 | x8 | x8 | x8 | x8 | x8 | x2 (E,^F,) x4 | x2 C,2 x4 | x6 |] %9

